X:1
T: Mrs Jay MacKenzie
C:Bruce Shawyer
R:Jig
I:speed 180
K:G
M:6/8
L:1/16
d2|g4d2 d4c2|B4G2 G2A2B2|c4A2 A4G2|F4D2 D4d2|g4d2 d4c2|B4G2 G2A2B2|c2A2F2 D2F2A2|A4G2 G4G2|
A2F2D2 D2F2A2|B4G2 G4B2|c4A2 A4G2|F4D2 D4z2|A2F2D2 D2F2A2|B4G2 G4B2|c4A2 F4D2|B4G2 G4d2|
g4d2 d4c2|B4G2 G2A2B2|c4A2 A4G2|F4D2 D4d2|g4d2 d4c2|B4G2 G2A2B2|c2A2F2 D2F2A2|A4G2 G4G2|
A2F2D2 D2F2A2|B4G2 G4B2|c4A2 A4G2|F4D2 D4z2|A2F2D2 D2F2A2|B4G2 G4B2|c4A2 F4D2|B4G2 G4z2||
